X: 1
T: I Bought Me A Cat
T: Fiddle Eye Fee
C: Traditional
O: America
S: Ethan Lehman <ethantlehman:gmail.com> 2020-3-13
M: 4/4
L: 1/8
Q: 1/4=180
K: C
C \
| E2GG G3E  | G2A2 C3C | C2E2 G2EE | G2E2 D3C \
| C2C2 E2C2 | E2 C4 zC | C2C2 EEG2 \
| EE G4 zC | C2C2 EED2 | C6 z2 |]
W: I bought me a goose, my goose pleased me
W: I fed my goose under yonder tree
W: My goose says, "Quaw, quaw"
W: My hen says "Shimmy shack, shimmy shack"
W: My cat says, "Fiddle eye fee"
